Numix-GalliumOS/48/actions/go-top.svg

<svg width="48" xmlns="http://www.w3.org/2000/svg" height="48" viewBox="0 0 48 48" xmlns:xlink="http://www.w3.org/1999/xlink">
<g style="fill-rule:evenodd">
<path style="fill:#268bd2" d="M 24 4 C 12.957031 4 4 12.957031 4 24 C 4 35.042969 12.957031 44 24 44 C 35.042969 44 44 35.042969 44 24 C 44 12.957031 35.042969 4 24 4 Z "/>
<path style="fill:#fff;fill-opacity:.902" d="M 40 12 C 36 6 30.078125 4 24 4 C 17.933594 4 12 6 8 12 "/>
</g>
<path style="fill:#fff;fill-opacity:.902" d="M 24.007812 12 C 23.394531 12 22.8125 12.261719 22.382812 12.6875 L 14.695312 20.125 C 14.269531 20.527344 14.023438 21.101562 14.007812 21.6875 C 13.976562 22.617188 14.503906 23.449219 15.382812 23.8125 C 16.257812 24.175781 17.285156 23.980469 17.945312 23.3125 L 22.007812 19.375 L 22.007812 36 L 26.007812 36 L 26.007812 19.375 L 30.070312 23.3125 C 30.96875 24.1875 32.417969 24.1875 33.320312 23.3125 C 34.21875 22.4375 34.21875 21 33.320312 20.125 L 25.632812 12.6875 C 25.199219 12.261719 24.617188 12 24.007812 12 Z "/>
</svg>

<svg xmlns="http://www.w3.org/2000/svg" viewBox="0 0 48 48">
 <g transform="matrix(-1,0,0,-1,48,48)" style="fill-rule:evenodd">
  <path d="m 24 4 c -11.04 0 -20 8.957 -20 20 0 4.508 1.511 8.655 4.03 12 7.971 2 21.971 2 31.941 0 2.518 -3.345 4.03 -7.492 4.03 -12 0 -11.04 -8.957 -20 -20 -20" style="fill:#268bd2"/>
  <path d="m 8 36 c 4 6 9.922 8 16 8 6.066 0 12 -2 16 -8" style="fill:#eaf4fb;fill-opacity:1"/>
 </g>
 <path d="m 24.01 12 c -0.613 0 -1.195 0.262 -1.625 0.688 l -7.688 7.438 c -0.426 0.402 -0.672 0.977 -0.688 1.563 -0.031 0.93 0.496 1.762 1.375 2.125 0.875 0.363 1.902 0.168 2.563 -0.5 l 4.063 -3.938 0 16.625 4 0 0 -16.625 4.063 3.938 c 0.898 0.875 2.348 0.875 3.25 0 0.898 -0.875 0.898 -2.313 0 -3.188 l -7.688 -7.438 c -0.434 -0.426 -1.016 -0.688 -1.625 -0.688" style="fill:#eaf4fb;fill-opacity:1"/>
</svg>
